src/assets/svgs/panels/conveyorBelt.svg

<svg viewBox="0 0 606.73 395.43">
  <g class="brassDark">
    <path d="M60.57,74.09h12.73v-15.13c0-8.79-12.73-8.79-12.73,0v15.13Z"/>
    <path d="M170.54,238.6h12.73v-15.13c0-8.79-12.73-8.79-12.73,0v15.13Z"/>
    <path d="M522.53,231.12l12.73-1.9v-7.59c0-8.79-12.73-8.79-12.73,0v9.49Z"/>
    <path d="M403.39,22.22h12.73V7.09c0-8.79-12.73-8.79-12.73,0v15.13Z"/>
  </g>
  <path class="ironMedium" d="M115.74,218.84c-62.61,0-106.4-4.11-105.08-14.35,.79-6.13,6.93-5.9,25.03-10.14,12.97-3.04,20.91-15.35,20.91-26.95v-55.82c0-55.51,46.09-99.55,104.12-99.55H422.48c58.04,0,104.12,44.04,104.12,99.55v55.82c0,11.6,7.94,23.91,20.91,26.95,18.09,4.24,24.24,4,25.03,10.14,1.32,10.24-42.47,14.35-105.08,14.35H115.74Zm358.82,9.71c60.72,0,110.83-5.13,108.02-23.58-1.97-12.94-9.77-14.03-28.79-18.27-10.13-2.26-17.35-9.29-17.35-19.67v-54.75c0-60.72-49.22-109.94-109.94-109.94H156.69c-60.72,0-109.94,49.22-109.94,109.94v54.75c0,10.38-7.22,17.41-17.35,19.67-19.02,4.24-26.82,5.33-28.79,18.27-2.81,18.44,47.3,23.58,108.02,23.58H474.56Z"/>
  <g class="patinaDarker">
    <polygon points="120.51 242.51 126.18 247.86 126.18 391.02 120.51 391 120.51 242.51"/>
    <polygon points="233.85 242.51 228.23 247.86 228.23 391.01 233.85 391.02 233.85 242.51"/>
  </g>
  <g class="patinaMediumDark">
    <polygon points="603.97 239.07 603.97 377.22 564.49 377.42 564.49 243.84 603.97 239.07"/>
    <rect x="126.18" y="247.86" width="102.05" height="143.15"/>
  </g>
  <g class="patinaDarkest">
    <polygon points="228.23 321.23 233.85 318.3 120.51 318.32 126.18 321.23 228.23 321.23"/>
    <polygon points="126.18 247.86 120.51 242.51 233.85 242.51 228.23 247.86 126.18 247.86"/>
    <polygon points="564.49 229.26 603.97 239.07 564.49 243.84 564.49 229.26"/>
    <polygon points="564.49 312.32 603.97 309.57 564.49 304.89 564.49 312.32"/>
  </g>
  <g class="patinaDark">
    <polygon points="355.43 185.18 349.69 178.55 470.36 178.55 464.68 185.18 355.43 185.18"/>
    <polygon points="12.61 235.92 6.88 230.42 127.55 230.42 121.87 235.92 12.61 235.92"/>
    <path d="M562.4,225.18v156.33l43.47-.81V235.6l-43.47-10.42Zm41.57,13.9v67.55l-39.47-4.91v-72.46l39.47,9.82Zm-39.47,138.35v-72.55l39.47,4.7v67.65l-39.47,.2Z"/>
  </g>
  <g class="patinaMedium">
    <polygon points="464.61 381.35 562.4 381.5 562.4 225.18 464.61 239.75 464.61 381.35"/>
    <rect x="349.69" y="22.22" width="120.67" height="156.33"/>
    <rect x="6.88" y="74.09" width="120.67" height="156.33"/>
    <path d="M116.85,238.6v156.33h120.67V238.6H116.85Zm3.66,3.91h113.34v72.63H120.51v-72.63Zm0,148.51v-72.72h113.34v72.72H120.51Z"/>
  </g>
</svg>

<svg viewBox="0 0 606.73 395.43">
  <g class="brassDark">
    <path d="M60.57,74.09H73.3V59c0-8.79-12.73-8.79-12.73,0Z"/>
    <path d="M170.54,238.6h12.73V223.47c0-8.79-12.73-8.79-12.73,0Z"/>
    <path d="M522.53,231.12l12.73-1.9v-7.59c0-8.79-12.73-8.79-12.73,0Z"/>
    <path d="M403.39,22.22h12.73V7.09c0-8.79-12.73-8.79-12.73,0Z"/>
  </g>
  <path class="ironMedium" d="M115.74,218.84c-62.61,0-106.39-4.11-105.08-14.35.79-6.13,6.93-5.9,25-10.14,13-3,20.91-15.35,20.91-26.94V111.59C56.6,56.08,102.68,12,160.72,12H422.48c58,0,104.12,44,104.12,99.55v55.82c0,11.59,7.94,23.91,20.91,26.94,18.1,4.24,24.24,4,25,10.14,1.31,10.24-42.47,14.35-105.09,14.35Zm358.82,9.7c60.72,0,110.84-5.13,108-23.58-2-12.93-9.77-14-28.79-18.26-10.13-2.26-17.35-9.3-17.35-19.67V112.28A110,110,0,0,0,426.5,2.33H156.69a110,110,0,0,0-109.94,110V167c0,10.37-7.22,17.41-17.35,19.67C10.38,190.93,2.58,192,.61,205c-2.81,18.45,47.3,23.58,108,23.58Z"/>
  <g class="patinaDarker">
    <polygon points="120.51 242.51 126.19 247.86 126.19 391.02 120.51 391 120.51 242.51"/>
    <polygon points="233.85 242.51 228.23 247.86 228.23 391.01 233.85 391.02 233.85 242.51"/>
  </g>
  <g class="patinaMediumDark">
    <polygon points="603.97 239.07 603.97 377.22 564.5 377.42 564.5 243.84 603.97 239.07"/>
    <rect x="126.18" y="247.86" width="102.05" height="143.15"/>
  </g>
  <g class="patinaDarkest">
    <polygon points="228.23 321.23 233.85 318.3 120.51 318.32 126.19 321.23 228.23 321.23"/>
    <polygon points="126.19 247.86 120.51 242.51 233.85 242.51 228.23 247.86 126.19 247.86"/>
    <polygon points="564.5 229.26 603.97 239.07 564.5 243.84 564.5 229.26"/>
    <polygon points="564.5 312.31 603.97 309.57 564.5 304.89 564.5 312.31"/>
  </g>
  <path class="glassLight" d="M197.24,272.38c5.24-.91,15.3-.95,20.52.09q-1.32,18.93-2.71,37.86l-15.76-.13Q198.35,291.28,197.24,272.38Z"/>
  <path class="trayRim" d="M231.26,296.9a3.19,3.19,0,0,1,0,6q-54.1.84-108.21,0c-2.33-1.11-3.28-5.4,0-6Z"/>
  <path class="trayBasinLight" d="M223.78,315.13H130.57c-2.67-.23-4.53-2.48-5.13-4.95s-1.19-4.84-1.81-7.25q53.55.82,107.09,0-.93,3.61-1.81,7.25C228.31,312.65,226.45,314.9,223.78,315.13Z"/>
  <g class="patinaDark">
    <polygon points="355.43 185.18 349.69 178.55 470.36 178.55 464.68 185.18 355.43 185.18"/>
    <polygon points="12.61 235.92 6.88 230.42 127.55 230.42 121.87 235.92 12.61 235.92"/>
    <path d="M562.4,225.18V381.5l43.48-.81V235.6ZM604,239.07v67.56l-39.48-4.92V229.26ZM564.49,377.42V304.87l39.48,4.7v67.65Z"/>
  </g>
  <g class="patinaMedium">
    <polygon points="464.61 381.35 562.4 381.5 562.4 225.18 464.61 239.75 464.61 381.35"/>
    <rect x="349.69" y="22.22" width="120.67" height="156.33"/>
    <rect x="6.88" y="74.09" width="120.67" height="156.33"/>
    <path d="M116.85,238.6V394.93H237.51V238.6Zm3.66,3.91H233.85v72.62H120.51Zm0,148.51V318.3H233.85V391Z"/>
  </g>
</svg>
